usr/share/icons/biglinux-icons-material/24/actions/run-build.svg

<svg xmlns="http://www.w3.org/2000/svg" viewBox="0 0 24 24">
  <defs id="defs3051">
    <style type="text/css" id="current-color-scheme">
      .ColorScheme-Text {
        color:#363636;
      }
      </style>
  </defs>
 <path style="fill:currentColor;fill-opacity:1;stroke:none" 
     d="M 12 4 C 11.32479 4.004 10.65279 4.092995 10 4.265625 L 10 5.2988281 L 10 5.3105469 A 7 7 0 0 0 8.6835938 5.8554688 L 8.6757812 5.8476562 L 7.9433594 5.1152344 C 6.7764094 5.8032844 5.8032844 6.7764094 5.1152344 7.9433594 L 5.6367188 8.4648438 L 5.8554688 8.6835938 A 7 7 0 0 0 5.3085938 10 L 5.2949219 10 L 4.2597656 10 C 4.0891457 10.65304 4.00187 11.32505 4 12 C 4.004 12.67521 4.093005 13.34721 4.265625 14 L 5.2988281 14 L 5.3105469 14 A 7 7 0 0 0 5.8554688 15.316406 L 5.6367188 15.535156 L 5.1152344 16.056641 C 5.8032844 17.223601 6.7763994 18.196716 7.9433594 18.884766 L 8.4648438 18.363281 L 8.6835938 18.144531 A 7 7 0 0 0 10 18.691406 L 10 19 L 10 19.740234 C 10.65304 19.910854 11.32504 19.99813 12 20 C 12.67496 19.9981 13.34696 19.91085 14 19.740234 L 14 19 L 14 18.691406 A 7 7 0 0 0 15.316406 18.144531 L 15.535156 18.363281 L 16.056641 18.884766 C 17.223601 18.196716 18.196716 17.223601 18.884766 16.056641 L 18.363281 15.535156 L 18.144531 15.316406 A 7 7 0 0 0 18.689453 14 L 18.701172 14 L 19.734375 14 C 19.907004 13.34721 19.996 12.67521 20 12 C 19.9981 11.32505 19.91085 10.65304 19.740234 10 L 18.705078 10 L 18.691406 10 A 7 7 0 0 0 18.144531 8.6835938 L 18.363281 8.4648438 L 18.884766 7.9433594 C 18.196716 6.7764094 17.223591 5.8032844 16.056641 5.1152344 L 15.324219 5.8476562 L 15.316406 5.8554688 A 7 7 0 0 0 14 5.3105469 L 14 5.2988281 L 14 4.265625 C 13.34721 4.092995 12.67521 4.004 12 4 z M 12 5 C 12.33491 5.0012 12.66956 5.0273719 13 5.0761719 L 13 5.0800781 L 13 6 L 13 6.0859375 A 6 6 0 0 1 15.470703 7.1152344 L 15.535156 7.0507812 L 16.185547 6.4003906 L 16.1875 6.3984375 C 16.72484 6.7991075 17.201446 7.2742469 17.603516 7.8105469 L 17.599609 7.8144531 L 16.949219 8.4648438 L 16.886719 8.5273438 A 6 6 0 0 1 17.910156 11 L 18 11 L 18.921875 11 L 18.925781 11 C 18.974081 11.33106 18.9995 11.66455 19 12 C 18.9988 12.33491 18.972628 12.66955 18.923828 13 L 18.919922 13 L 18 13 L 17.914062 13 A 6 6 0 0 1 16.884766 15.470703 L 16.949219 15.535156 L 17.599609 16.185547 L 17.601562 16.1875 C 17.200893 16.72484 16.725753 17.201456 16.189453 17.603516 L 16.185547 17.599609 L 15.535156 16.949219 L 15.472656 16.886719 A 6 6 0 0 1 13 17.910156 L 13 18 L 13 18.921875 L 13 18.925781 C 12.66894 18.974081 12.33545 18.9995 12 19 C 11.66455 18.9995 11.33106 18.974081 11 18.925781 L 11 18.921875 L 11 18 L 11 17.910156 A 6 6 0 0 1 8.5273438 16.886719 L 8.4648438 16.949219 L 7.8144531 17.599609 L 7.8105469 17.603516 C 7.2742507 17.201463 6.7991075 16.72484 6.3984375 16.1875 L 6.4003906 16.185547 L 7.0507812 15.535156 L 7.1152344 15.470703 A 6 6 0 0 1 6.0859375 13 L 6 13 L 5.0800781 13 L 5.0761719 13 C 5.0273719 12.66955 5.0012 12.33491 5 12 C 5.0005 11.66455 5.0259187 11.33106 5.0742188 11 L 5.078125 11 L 6 11 L 6.0898438 11 A 6 6 0 0 1 7.1132812 8.5273438 L 7.0507812 8.4648438 L 6.4003906 7.8144531 L 6.3964844 7.8105469 C 6.7985582 7.2742507 7.27516 6.7991075 7.8125 6.3984375 L 7.8144531 6.4003906 L 8.4648438 7.0507812 L 8.5292969 7.1152344 A 6 6 0 0 1 11 6.0859375 L 11 6 L 11 5.0800781 L 11 5.0761719 C 11.33044 5.0273719 11.66509 5.0012 12 5 z M 10 9 L 10 15 L 15 12 L 10 9 z "
     class="ColorScheme-Text"
     />
</svg>

<svg xmlns="http://www.w3.org/2000/svg" viewBox="0 0 24 24"><path d="M12 4a8.008 8.008 0 0 0-2 .266V5.31a7 7 0 0 0-1.316.544l-.008-.007-.733-.733a8 8 0 0 0-2.828 2.828l.522.522.218.219A7 7 0 0 0 5.31 10H4.26A8 8 0 0 0 4 12c.004.675.093 1.347.266 2H5.31a7 7 0 0 0 .544 1.316l-.218.22-.522.52a8 8 0 0 0 2.828 2.829l.522-.522.219-.218A7 7 0 0 0 10 18.69v1.049a8 8 0 0 0 2 .26 8.001 8.001 0 0 0 2-.26v-1.049a7 7 0 0 0 1.316-.546l.22.218.52.522a8 8 0 0 0 2.829-2.828l-.522-.522-.218-.219A7 7 0 0 0 18.689 14h1.045A8.008 8.008 0 0 0 20 12a8.001 8.001 0 0 0-.26-2h-1.049a7 7 0 0 0-.546-1.316l.218-.22.522-.52a8 8 0 0 0-2.828-2.829l-.733.733-.008.007A7 7 0 0 0 14 5.311V4.266A8.008 8.008 0 0 0 12 4zm0 1c.335.001.67.027 1 .076v1.01a6 6 0 0 1 2.47 1.03l.065-.065.65-.65.003-.003c.537.401 1.013.876 1.416 1.413l-.004.003-.65.65-.063.063A6 6 0 0 1 17.91 11h1.016c.048.331.074.665.074 1-.001.335-.027.67-.076 1h-1.01a6 6 0 0 1-1.03 2.47l.065.065.65.65.003.003a6.995 6.995 0 0 1-1.413 1.416l-.003-.004-.65-.65-.063-.063A6 6 0 0 1 13 17.91v1.016A6.993 6.993 0 0 1 12 19c-.335 0-.669-.026-1-.074V17.91a6 6 0 0 1-2.473-1.023l-.062.062-.65.65-.004.005a6.995 6.995 0 0 1-1.413-1.416l.002-.002.65-.65.065-.065A6 6 0 0 1 6.085 13H5.077A7.023 7.023 0 0 1 5 12c0-.335.026-.669.074-1H6.09a6 6 0 0 1 1.023-2.473l-.062-.062-.65-.65-.005-.004a6.995 6.995 0 0 1 1.417-1.413l.001.002.65.65.065.065A6 6 0 0 1 11 6.085V5.077c.33-.049.665-.075 1-.076zm-2 4v6l5-3-5-3z" style="fill:currentColor;fill-opacity:1;stroke:none;color:#dedede"/></svg>
